public/illustration/ytb.svg

<svg width="32" height="32" viewBox="0 0 32 32" fill="none" xmlns="http://www.w3.org/2000/svg">
<g clip-path="url(#clip0_744_5246)">
<path d="M31.3299 8.51507C31.1488 7.85443 30.7959 7.25632 30.3088 6.78432C29.8079 6.29782 29.1939 5.9498 28.5249 5.77314C26.0214 5.09855 15.9907 5.09855 15.9907 5.09855C11.809 5.04992 7.62836 5.26383 3.47235 5.73907C2.80336 5.92878 2.19062 6.28457 1.6886 6.77479C1.19533 7.25994 0.838044 7.85821 0.651402 8.5137C0.203053 10.9827 -0.0147858 13.4897 0.000822793 16.0009C-0.015175 18.5098 0.202129 21.016 0.651402 23.488C0.834044 24.1408 1.19 24.7363 1.6846 25.2175C2.1792 25.6985 2.79511 26.046 3.47235 26.23C6.00935 26.9031 15.9907 26.9031 15.9907 26.9031C20.1776 26.9519 24.3636 26.7381 28.5249 26.2627C29.1939 26.086 29.8079 25.7381 30.3088 25.2515C30.802 24.7705 31.1526 24.1722 31.3286 23.5207C31.7887 21.0527 32.0124 18.5447 31.9965 16.0322C32.0311 13.5092 31.8077 10.9907 31.3299 8.51507ZM12.8018 20.6671V11.336L21.1473 16.0022L12.8018 20.6671Z" fill="#FB0021"/>
</g>
<defs>
<clipPath id="clip0_744_5246">
<rect width="32" height="21.8182" fill="white" transform="translate(0 5.0918)"/>
</clipPath>
</defs>
</svg>

<svg xmlns="http://www.w3.org/2000/svg" width="32" height="32" fill="none" viewBox="0 0 32 32"><g clip-path="url(#a)"><path fill="#fb0021" d="M31.33 8.515a3.8 3.8 0 0 0-1.021-1.73 4.04 4.04 0 0 0-1.784-1.012C26.02 5.1 15.99 5.1 15.99 5.1a100 100 0 0 0-12.519.64A4.2 4.2 0 0 0 1.69 6.775 3.96 3.96 0 0 0 .65 8.514 40.5 40.5 0 0 0 .001 16a40.4 40.4 0 0 0 .65 7.487 3.87 3.87 0 0 0 1.034 1.73c.494.48 1.11.828 1.787 1.012 2.537.673 12.519.673 12.519.673 4.187.049 8.373-.165 12.534-.64a4.04 4.04 0 0 0 1.784-1.012 3.8 3.8 0 0 0 1.02-1.73 39.5 39.5 0 0 0 .668-7.489 37 37 0 0 0-.667-7.517M12.802 20.667v-9.331l8.345 4.666z"/></g><defs><clipPath id="a"><path fill="#fff" d="M0 5.092h32V26.91H0z"/></clipPath></defs></svg>
